packages/icons/src/assets/layer-down.svg

<svg xmlns="http://www.w3.org/2000/svg" width="24" height="24"><g clip-path="url(#a)"><path d="m21.218 16.718-2.468 2.474V12h-1.5v7.192l-2.467-2.474-1.065 1.064L18 22.059l4.282-4.276z"/><path d="m15.413 13.455-2.708 1.373a1.52 1.52 0 0 1-1.402 0L4.597 11.43c-.06-.03-.09-.127-.09-.203 0-.075.03-.172.09-.202l2.37-1.207 3.653 1.852c.443.225.915.338 1.388.338s.945-.113 1.387-.338l3.653-1.852 2.37 1.207.682-1.335-1.395-.705 1.388-.705c.562-.285.915-.877.915-1.545s-.353-1.26-.915-1.545l-6.503-3.3a3.45 3.45 0 0 0-3.158 0L3.915 5.183C3.352 5.468 3 6.06 3 6.728s.352 1.26.915 1.545l1.387.705-1.395.705c-.562.285-.915.877-.915 1.544 0 .668.353 1.26.908 1.546l6.705 3.397a3 3 0 0 0 2.768 0l2.707-1.373-.675-1.335zM4.59 6.93c-.068-.037-.09-.135-.09-.202 0-.068.022-.173.09-.203l6.502-3.3c.285-.142.593-.217.9-.217s.615.075.9.217l6.503 3.3c.067.038.09.135.09.203 0 .067-.023.172-.09.202l-6.697 3.398c-.45.225-.968.225-1.41 0z"/></g><defs><clipPath id="a"><path d="M0 0h24v24H0z"/></clipPath></defs></svg>

<svg width="100%" height="100%" viewBox="0 0 24 24" version="1.1" xmlns="http://www.w3.org/2000/svg" xmlns:xlink="http://www.w3.org/1999/xlink" xml:space="preserve" style="fill-rule:evenodd;clip-rule:evenodd;stroke-linejoin:round;stroke-miterlimit:2;"><path d="M21.218,16.718L18.75,19.192L18.75,12L17.25,12L17.25,19.192L14.783,16.718L13.718,17.782L18,22.059L22.282,17.783L21.218,16.718Z" style="fill-rule:nonzero;"/><path d="M15.413,13.455L12.705,14.828C12.266,15.056 11.742,15.056 11.303,14.828L4.597,11.43C4.537,11.4 4.507,11.303 4.507,11.227C4.507,11.152 4.537,11.055 4.597,11.025L6.967,9.818L10.62,11.67C11.063,11.895 11.535,12.008 12.008,12.008C12.481,12.008 12.953,11.895 13.395,11.67L17.048,9.818L19.418,11.025L20.1,9.69L18.705,8.985L20.093,8.28C20.655,7.995 21.008,7.403 21.008,6.735C21.008,6.067 20.655,5.475 20.093,5.19L13.59,1.89C12.6,1.38 11.422,1.38 10.432,1.89L3.915,5.183C3.352,5.468 3,6.06 3,6.728C3,7.396 3.352,7.988 3.915,8.273L5.302,8.978L3.907,9.683C3.345,9.968 2.992,10.56 2.992,11.227C2.992,11.895 3.345,12.487 3.9,12.773L10.605,16.17C11.472,16.621 12.506,16.621 13.373,16.17L16.08,14.797L15.405,13.462L15.413,13.455ZM4.59,6.93C4.522,6.893 4.5,6.795 4.5,6.728C4.5,6.66 4.522,6.555 4.59,6.525L11.092,3.225C11.377,3.083 11.685,3.008 11.992,3.008C12.299,3.008 12.607,3.083 12.892,3.225L19.395,6.525C19.462,6.563 19.485,6.66 19.485,6.728C19.485,6.795 19.462,6.9 19.395,6.93L12.698,10.328C12.248,10.553 11.73,10.553 11.288,10.328L4.59,6.93Z" style="fill-rule:nonzero;"/></svg>
